svg/fluentui-system-icons/ic_fluent_pen_dismiss_16_filled.svg

<svg width="16" height="16" viewBox="0 0 16 16" fill="none" xmlns="http://www.w3.org/2000/svg">
<path d="M9.73321 1.56042C10.4808 0.812927 11.6927 0.812954 12.4403 1.56048C13.1878 2.30805 13.1878 3.52011 12.4402 4.26765L11.5981 5.10964C11.2433 5.03774 10.876 5 10.5 5C7.46243 5 5 7.46243 5 10.5C5 10.8759 5.03771 11.2429 5.10954 11.5976L5.04531 11.6619C4.86432 11.8428 4.64368 11.9792 4.40087 12.0601L1.65813 12.9744C1.47846 13.0343 1.28038 12.9875 1.14646 12.8536C1.01254 12.7197 0.965783 12.5216 1.02567 12.3419L1.93989 9.59924C2.02085 9.35637 2.15725 9.13568 2.33829 8.95466L9.73321 1.56042ZM15 10.5C15 12.9853 12.9853 15 10.5 15C8.01472 15 6 12.9853 6 10.5C6 8.01472 8.01472 6 10.5 6C12.9853 6 15 8.01472 15 10.5ZM12.3536 9.35355C12.5488 9.15829 12.5488 8.84171 12.3536 8.64645C12.1583 8.45118 11.8417 8.45118 11.6464 8.64645L10.5 9.79289L9.35355 8.64645C9.15829 8.45118 8.84171 8.45118 8.64645 8.64645C8.45118 8.84171 8.45118 9.15829 8.64645 9.35355L9.79289 10.5L8.64645 11.6464C8.45118 11.8417 8.45118 12.1583 8.64645 12.3536C8.84171 12.5488 9.15829 12.5488 9.35355 12.3536L10.5 11.2071L11.6464 12.3536C11.8417 12.5488 12.1583 12.5488 12.3536 12.3536C12.5488 12.1583 12.5488 11.8417 12.3536 11.6464L11.2071 10.5L12.3536 9.35355Z" fill="#212121"/>
</svg>

<svg xmlns="http://www.w3.org/2000/svg" width="16" height="16"><path d="M9.733 1.56a1.914 1.914 0 0 1 2.707 2.708l-.842.842a5.5 5.5 0 0 0-6.489 6.488l-.064.064a1.65 1.65 0 0 1-.644.398l-2.743.914a.5.5 0 0 1-.632-.632l.914-2.743c.08-.243.217-.463.398-.644L9.733 1.56ZM15 10.5a4.5 4.5 0 1 1-9 0 4.5 4.5 0 0 1 9 0Zm-2.646-1.146a.5.5 0 0 0-.708-.708L10.5 9.793 9.354 8.646a.5.5 0 1 0-.708.708L9.793 10.5l-1.147 1.146a.5.5 0 0 0 .708.708l1.146-1.147 1.146 1.147a.5.5 0 0 0 .708-.708L11.207 10.5l1.147-1.146Z"/></svg>
